X:122
T: Die elfjaehrige Markgraefin
N: Q0053
O: Mitteleuropa, Deutschland
R: Ballade, Braut - Werbung, Hochzeit, Minderjaehrige, Tod
M: 3/2
L: 1/8
K: F
F2F2G2 | A2c3BA2G2G2 | F4z2
F2c2d2 | e2c2f4d4 | c4
F4c2f2 | e3dc2d2c3B | A4z2
d2c3B | A2F2G2c3BA2G2G2 | F4z2

@@@ Tune index: 858
